X:121
T: I'll kiss the Wife she bade me
R: reel
M: C|
L: 1/8
K: Am
|:\
(Ad).c.e (cB).A.G | EFGE AddB | (EF).D.d (AB)c | EFGE D2D :|
(dd).c.e (ce).e.g | BdGd BGdB | (Ac).B.G AddB | d2d2d :|
(ee).e.g (Be).a.g | (f'/a/g/a) (ce)e'.e | (f'a)g (ag/f/) | bBe aAa g2(dg) | f'a.a g2(db) |
(ee).e.g (fe).d.c | BdGd BGdB | (Ac).B.G AddB | D2D2D :|

